X:1
T:Title
%%score ( 1 2 )
L:1/8
M:2/4
K:F
V:1 treble nm="Part_1"
V:2 treble 
V:1
!>(!!>(! z2!>)! FF | EECC | A,2 DD | CCA,A, | F,2 F/F/F | EECC | A,2 DD | CCA,C |: F3 F | GFGF | %10
 E3 E | FEFE | D3 D | EDED | C2 B,A, | B,A, z C :| B,A, z C |: !>!F2 z F |S GFGF | E2 z E | FEFE | %21
 D2 z D/D/ | EDED | C2 B,A, | B,A, z C | F2 z F | GFGF | E2 z E | FEFE | D2 z D/D/ | EDED | %31
 C2 B,A, | B,A, z C | F3 F | G2 A2 | F2 EA, | D3 D | E2 FE | EDDA, | C2 =B,C | DEFG | A2 GF | %42
 G2 FE | F2 ED | D^CFE | z3 DCB,[A,C] :| D3 B, |[M:4/4] D3 ^F AB^cB | d2 ^c2 B d2 c | %49
[K:treble] B2 A2 G B2 A | G2 ^F2 _ED z B, | D/_E/D E/^F/E D/E/D ^C/D/C | %52
 B,/^C/B, A,/B,/A, _ED z B, | D/_E/D E/^F/E D/E/D ^C/D/C | B,/^C/B, A,/B,/A, _ED z B,/B,/ |: %55
 D3 D F2 FE | _G2 GF F2 z E/E/ | _G2 GF FFFE | _G3 F/F/ AGGF | _G2 FE F3 D | _E2 ^F>E D3 B,/B,/ | %61
 D3 D F2 FE | _G2 GF F2 z E/E/ || _G2 GF FFFE | _G3 F/F/ AGGF | _G2 FE F3 D | z3 x B,/B,/ x3 :| %67
 ._E2 ^F>E D4 |[M:2/4] E4 | !fermata!F3 C |S F3!>)! F |] %71
V:2
 x4 | x4 | x4 | x4 | x4 | x4 | x4 | x4 |: x4 | x4 | x4 | x4 | x4 | x4 | x4 | x4 :| x4 |: x4 | x4 | %19
 x4 | x4 | x4 | x4 | x4 | x4 | x4 | x4 | x4 | x4 | x4 | x4 | x4 | x4 | x4 | x4 | x4 | x4 | x4 | %38
 x4 | x4 | x4 | x4 | x4 | x4 | x4 | x7 :| x4 |[M:4/4] x8 | x8 |[K:treble] x8 | x8 | x8 | x8 | x8 | %54
 x8 |: x8 | x8 | x8 | x8 | x8 | x8 | x8 | x8 || x8 | x8 | x8 | _E2 ^F>E D3 x :| x8 |[M:2/4] x4 | %69
 x4 | x4 |] %71

